img/page/main-block/partners/02.svg

<svg width="213" height="59" viewBox="0 0 213 59" fill="none" xmlns="http://www.w3.org/2000/svg">
<path fill-rule="evenodd" clip-rule="evenodd" d="M105.236 6.43504C107.289 4.38233 110.617 4.38233 112.67 6.43504C114.722 8.48789 114.722 11.8161 112.67 13.869L100.154 26.3845C96.5608 21.5687 96.9512 14.7197 101.325 10.3456L105.236 6.43504Z" fill="#4F9E91"/>
<path fill-rule="evenodd" clip-rule="evenodd" d="M123.127 34.6719C125.181 36.7246 125.181 40.053 123.127 42.1057C121.076 44.1586 117.747 44.1586 115.694 42.1057L103.179 29.5904C107.994 25.9971 114.843 26.3873 119.217 30.7613L123.127 34.6719Z" fill="#EBE1C5"/>
<path fill-rule="evenodd" clip-rule="evenodd" d="M94.8906 52.5645C92.8379 54.6173 89.5095 54.6173 87.4568 52.5645C85.4039 50.5116 85.4039 47.1834 87.4568 45.1305L99.9721 32.6152C103.565 37.4309 103.175 44.28 98.8012 48.6539L94.8906 52.5645Z" fill="#EBCC6E"/>
<path fill-rule="evenodd" clip-rule="evenodd" d="M76.9986 24.3266C74.9458 22.2738 74.9458 18.9455 76.9986 16.8927C79.0515 14.8398 82.3797 14.8398 84.4326 16.8927L96.9481 29.4082C92.1323 33.0015 85.2831 32.6111 80.9092 28.2372L76.9986 24.3266Z" fill="#ED834E"/>
<path fill-rule="evenodd" clip-rule="evenodd" d="M102.439 51.0315C105.466 47.666 106.873 43.3595 106.659 39.1195L112.67 45.1302C112.685 45.1451 112.7 45.16 112.715 45.175V49.4662C112.715 52.3693 110.362 54.7227 107.458 54.7227C105.1 54.7227 103.105 53.1701 102.439 51.0315Z" fill="#ED834E"/>
<path fill-rule="evenodd" clip-rule="evenodd" d="M78.5315 31.8751C81.8968 34.9022 86.2033 36.3091 90.4433 36.0956L84.4328 42.1063C84.4177 42.1212 84.4028 42.1363 84.388 42.1512H80.0968C77.1937 42.1514 74.8402 39.7978 74.8402 36.8947C74.8402 34.5368 76.3928 32.5414 78.5315 31.8751Z" fill="#4F9E91"/>
<path fill-rule="evenodd" clip-rule="evenodd" d="M121.595 27.1248C118.23 24.0977 113.923 22.6908 109.683 22.9041L115.694 16.8936C115.709 16.8787 115.724 16.8636 115.739 16.8485H120.03C122.934 16.8485 125.287 19.2021 125.287 22.1052C125.287 24.4632 123.734 26.4585 121.595 27.1248Z" fill="#EBCC6E"/>
<path fill-rule="evenodd" clip-rule="evenodd" d="M97.6878 7.96787C94.6607 11.3332 93.254 15.6397 93.4673 19.8798L87.4568 13.8692C87.4417 13.8543 87.4268 13.8393 87.4117 13.8244V9.53318C87.4117 6.63007 89.7651 4.27649 92.6682 4.27649C95.0262 4.27649 97.0216 5.82922 97.6878 7.96787Z" fill="#EBE1C5"/>
<path fill-rule="evenodd" clip-rule="evenodd" d="M92.6684 0C87.4033 0 83.135 4.26828 83.135 9.5334V11.3876C79.9674 10.56 76.4569 11.3872 73.9747 13.8694C70.2516 17.5925 70.2516 23.6287 73.9747 27.3517L75.2857 28.6628C72.4607 30.3174 70.5634 33.3846 70.5634 36.8949C70.5634 42.16 74.8317 46.4283 80.0968 46.4283H81.9509C81.1233 49.5959 81.9504 53.1064 84.4327 55.5885C88.1558 59.3115 94.192 59.3115 97.915 55.5885L101.825 51.678C105.275 48.2284 106.886 43.6363 106.659 39.1196L112.67 45.1303C116.393 48.8533 122.429 48.8533 126.152 45.1303C129.876 41.4072 129.876 35.371 126.152 31.6481L124.842 30.3372C127.666 28.6826 129.563 25.6154 129.563 22.1051C129.563 16.84 125.294 12.5717 120.03 12.5717H118.176C119.003 9.40397 118.176 5.89349 115.694 3.41122C111.971 -0.31182 105.935 -0.31182 102.212 3.41122L98.3011 7.32183C94.8514 10.7715 93.2403 15.3634 93.4676 19.8801L87.457 13.8694C87.4419 13.8545 87.4269 13.8395 87.4119 13.8246V9.5334C87.4119 6.63029 89.7653 4.27686 92.6684 4.27686C95.0264 4.27686 97.0217 5.82944 97.688 7.96809C97.8854 7.74858 98.0897 7.53306 98.301 7.32183L100.901 4.72225C99.2459 1.89724 96.1787 0 92.6684 0ZM115.739 16.8486C115.724 16.8635 115.709 16.8786 115.694 16.8935L109.683 22.904C113.924 22.6907 118.23 24.0975 121.595 27.1247C123.734 26.4584 125.287 24.463 125.287 22.1051C125.287 19.202 122.934 16.8486 120.03 16.8486H115.739ZM84.3878 42.1514C84.4027 42.1363 84.4176 42.1213 84.4327 42.1063L90.4432 36.0957C86.2032 36.3091 81.8969 34.9022 78.5315 31.8753C76.3929 32.5416 74.8402 34.5369 74.8402 36.8949C74.8402 39.798 77.1937 42.1514 80.0968 42.1514H84.3878ZM78.3676 31.7259C78.2045 31.5752 78.0437 31.4206 77.8853 31.2622V31.2623C78.0437 31.4208 78.2045 31.5752 78.3676 31.7259ZM107.458 59C103.948 59 100.881 57.1026 99.2261 54.2776L101.825 51.678C102.037 51.4668 102.241 51.2513 102.439 51.0318C103.105 53.1704 105.1 54.7231 107.458 54.7231C110.361 54.7231 112.715 52.3697 112.715 49.4666V45.1754C113.947 46.3912 115.427 47.2035 116.992 47.6123V49.4666C116.992 54.7317 112.723 59 107.458 59ZM112.67 6.43533C110.617 4.38262 107.289 4.38262 105.236 6.43533L101.325 10.3459C96.9513 14.72 96.561 21.569 100.154 26.3848L112.67 13.8693C114.723 11.8164 114.723 8.48819 112.67 6.43533ZM123.127 42.1062C125.181 40.0533 125.181 36.7251 123.127 34.6722L119.217 30.7616C114.843 26.3877 107.994 25.9974 103.178 29.5907L115.694 42.1062C117.747 44.159 121.076 44.159 123.127 42.1062ZM94.8908 52.5644C92.8379 54.6172 89.5097 54.6172 87.4568 52.5644C85.4041 50.5115 85.4041 47.1833 87.4568 45.1304L99.9723 32.6149C103.566 37.4307 103.175 44.2799 98.8014 48.6538L94.8908 52.5644ZM76.9988 16.8935C74.9461 18.9464 74.9461 22.2746 76.9988 24.3275L80.9094 28.2381C85.2834 32.612 92.1325 33.0023 96.9482 29.409L84.4327 16.8935C82.3799 14.8408 79.0516 14.8408 76.9988 16.8935Z" fill="#3D3A2C"/>
<path d="M0 19.2781H4.67521V33.8057H12.705V37.7414H0V19.2781Z" fill="white"/>
<path d="M21.1937 38.1376C19.6265 38.1376 18.2529 37.8558 17.0731 37.2923C15.8933 36.7112 14.9776 35.9187 14.326 34.9151C13.6922 33.8937 13.3752 32.7228 13.3752 31.402C13.3752 30.0813 13.6922 28.9191 14.326 27.9155C14.9776 26.8941 15.8933 26.1016 17.0731 25.5382C18.2529 24.957 19.6265 24.6665 21.1937 24.6665C22.761 24.6665 24.1344 24.957 25.3142 25.5382C26.4941 26.1016 27.401 26.8941 28.0348 27.9155C28.6864 28.9191 29.0121 30.0813 29.0121 31.402C29.0121 32.7228 28.6864 33.8937 28.0348 34.9151C27.401 35.9187 26.4941 36.7112 25.3142 37.2923C24.1344 37.8558 22.761 38.1376 21.1937 38.1376ZM21.1937 34.5188C22.127 34.5188 22.8666 34.2459 23.4124 33.7001C23.976 33.1365 24.2576 32.3706 24.2576 31.402C24.2576 30.4335 23.976 29.6763 23.4124 29.1305C22.8666 28.5669 22.127 28.2853 21.1937 28.2853C20.2603 28.2853 19.512 28.5669 18.9486 29.1305C18.4026 29.6763 18.1297 30.4335 18.1297 31.402C18.1297 32.3706 18.4026 33.1365 18.9486 33.7001C19.512 34.2459 20.2603 34.5188 21.1937 34.5188Z" fill="white"/>
<path d="M37.7443 43.8166C36.899 43.8166 36.0449 43.7373 35.1821 43.5789C34.3369 43.4203 33.606 43.2091 32.9898 42.9449V39.7224C34.3808 40.321 35.9657 40.6204 37.7443 40.6204C39.0297 40.6204 39.9542 40.3562 40.5176 39.828C41.0988 39.2998 41.3893 38.525 41.3893 37.5036V36.7376C40.8787 37.1779 40.2447 37.5212 39.4875 37.7678C38.7479 38.0144 37.9555 38.1376 37.1103 38.1376C35.772 38.1376 34.5922 37.8558 33.5708 37.2923C32.5496 36.7288 31.7483 35.9363 31.1672 34.9151C30.6036 33.8937 30.322 32.7228 30.322 31.402C30.322 30.0637 30.6036 28.8839 31.1672 27.8626C31.7307 26.8412 32.5231 26.0576 33.5445 25.5117C34.5657 24.9483 35.7368 24.6665 37.0575 24.6665C38.8713 24.6665 40.3679 25.2212 41.5478 26.3306V25.0626H46.0382V36.8697C46.0382 39.0708 45.3602 40.779 44.0043 41.994C42.6661 43.2091 40.5793 43.8166 37.7443 43.8166ZM38.2725 34.5453C38.9945 34.5453 39.6372 34.3604 40.2007 33.9906C40.7642 33.6208 41.1604 33.1278 41.3893 32.5114V30.2927C41.1428 29.6763 40.7378 29.192 40.1743 28.8398C39.6107 28.4702 38.9769 28.2853 38.2725 28.2853C37.3217 28.2853 36.5556 28.5669 35.9745 29.1305C35.3933 29.6763 35.1028 30.4246 35.1028 31.3756C35.1028 32.3441 35.3933 33.1189 35.9745 33.7001C36.5556 34.2635 37.3217 34.5453 38.2725 34.5453Z" fill="white"/>
<path d="M55.0361 38.1376C53.4689 38.1376 52.0955 37.8558 50.9156 37.2923C49.7358 36.7112 48.82 35.9187 48.1686 34.9151C47.5346 33.8937 47.2176 32.7228 47.2176 31.402C47.2176 30.0813 47.5346 28.9191 48.1686 27.9155C48.82 26.8941 49.7358 26.1016 50.9156 25.5382C52.0955 24.957 53.4689 24.6665 55.0361 24.6665C56.6034 24.6665 57.9768 24.957 59.1567 25.5382C60.3365 26.1016 61.2434 26.8941 61.8774 27.9155C62.5288 28.9191 62.8547 30.0813 62.8547 31.402C62.8547 32.7228 62.5288 33.8937 61.8774 34.9151C61.2434 35.9187 60.3365 36.7112 59.1567 37.2923C57.9768 37.8558 56.6034 38.1376 55.0361 38.1376ZM55.0361 34.5188C55.9694 34.5188 56.709 34.2459 57.255 33.7001C57.8184 33.1365 58.1002 32.3706 58.1002 31.402C58.1002 30.4335 57.8184 29.6763 57.255 29.1305C56.709 28.5669 55.9694 28.2853 55.0361 28.2853C54.1029 28.2853 53.3544 28.5669 52.791 29.1305C52.245 29.6763 51.9721 30.4335 51.9721 31.402C51.9721 32.3706 52.245 33.1365 52.791 33.7001C53.3544 34.2459 54.1029 34.5188 55.0361 34.5188Z" fill="white"/>
<path d="M137.418 19.2781H142.094V37.7414H137.418V19.2781Z" fill="white"/>
<path d="M144.461 25.0626H148.952V26.3306C150.131 25.2212 151.627 24.6665 153.441 24.6665C154.762 24.6665 155.933 24.9483 156.954 25.5117C157.976 26.0576 158.768 26.8412 159.331 27.8626C159.895 28.8663 160.177 30.0374 160.177 31.3756C160.177 32.6963 159.895 33.8761 159.331 34.9151C158.768 35.9363 157.976 36.7288 156.954 37.2923C155.951 37.8558 154.78 38.1376 153.441 38.1376C152.596 38.1376 151.786 38.0055 151.012 37.7413C150.255 37.4949 149.62 37.1514 149.11 36.7112V43.5259H144.461V25.0626ZM152.227 34.5188C153.178 34.5188 153.944 34.2372 154.524 33.6736C155.105 33.1102 155.397 32.3441 155.397 31.3756C155.397 30.407 155.105 29.65 154.524 29.104C153.944 28.5406 153.178 28.2588 152.227 28.2588C151.522 28.2588 150.888 28.4437 150.324 28.8135C149.761 29.1657 149.357 29.65 149.11 30.2662V32.5114C149.357 33.1278 149.761 33.6208 150.324 33.9906C150.888 34.3428 151.522 34.5188 152.227 34.5188Z" fill="white"/>
<path d="M167.107 38.1376C166.087 38.1376 165.022 38.032 163.912 37.8206C162.803 37.6269 161.921 37.3452 161.27 36.9754V33.568C161.992 33.9906 162.855 34.3428 163.859 34.6246C164.88 34.8886 165.813 35.0207 166.659 35.0207C167.274 35.0207 167.724 34.9766 168.005 34.8886C168.288 34.8006 168.428 34.6246 168.428 34.3604C168.428 34.149 168.332 33.9817 168.138 33.8585C167.962 33.7177 167.627 33.5767 167.134 33.4359C166.659 33.2775 166.104 33.1102 165.47 32.934C164.396 32.617 163.551 32.2913 162.934 31.9567C162.318 31.6221 161.861 31.1995 161.56 30.6888C161.261 30.1782 161.112 29.5355 161.112 28.7607C161.112 27.3871 161.649 26.3658 162.723 25.6966C163.815 25.0098 165.303 24.6665 167.187 24.6665C168.103 24.6665 169.063 24.7634 170.066 24.957C171.088 25.1508 171.853 25.4061 172.364 25.7231V29.0777C171.836 28.7255 171.131 28.4348 170.251 28.206C169.388 27.977 168.578 27.8626 167.82 27.8626C167.223 27.8626 166.755 27.9242 166.421 28.0474C166.087 28.1532 165.92 28.3468 165.92 28.6286C165.92 28.8928 166.087 29.0953 166.421 29.2361C166.755 29.3769 167.354 29.5531 168.217 29.7643C168.78 29.9053 169.018 29.9668 168.93 29.9492C170.057 30.2486 170.928 30.5832 171.545 30.953C172.162 31.3228 172.592 31.763 172.839 32.2737C173.104 32.7667 173.236 33.4007 173.236 34.1755C173.236 35.3905 172.708 36.359 171.651 37.081C170.612 37.7854 169.097 38.1376 167.107 38.1376Z" fill="white"/>
<path d="M180.176 38.1378C178.434 38.1378 177.122 37.6535 176.242 36.6851C175.379 35.7165 174.947 34.4399 174.947 32.8551V25.0629H179.596V32.3267C179.596 33.7883 180.256 34.519 181.577 34.519C182.176 34.519 182.722 34.3782 183.215 34.0964C183.707 33.8146 184.112 33.4009 184.429 32.8551V25.0629H189.078V37.7415H184.589V36.3681C184.043 36.9491 183.382 37.3893 182.607 37.6887C181.833 37.9881 181.022 38.1378 180.176 38.1378Z" fill="white"/>
<path d="M191.458 25.0626H195.764V26.4362C196.292 25.8728 196.9 25.4413 197.587 25.1419C198.273 24.8249 199.004 24.6665 199.779 24.6665C200.73 24.6665 201.487 24.8073 202.051 25.0891C202.632 25.3709 203.098 25.7935 203.45 26.357C203.978 25.8287 204.622 25.4148 205.379 25.1156C206.137 24.8162 206.903 24.6665 207.677 24.6665C209.35 24.6665 210.539 25.098 211.243 25.9608C211.947 26.806 212.299 28.0298 212.299 29.6322V37.7413H207.861V30.2927C207.861 29.5883 207.73 29.0777 207.465 28.7607C207.202 28.4437 206.761 28.2853 206.146 28.2853C205.353 28.2853 204.709 28.5669 204.217 29.1305C204.234 29.4297 204.243 29.8877 204.243 30.5039V37.7413H199.806V30.1078C199.806 29.4562 199.692 28.9895 199.462 28.7079C199.233 28.4261 198.828 28.2853 198.248 28.2853C197.349 28.2853 196.575 28.787 195.923 29.7908V37.7413H191.458V25.0626Z" fill="white"/>
</svg>

<svg width="213" height="59" fill="none" xmlns="http://www.w3.org/2000/svg"><path fill-rule="evenodd" clip-rule="evenodd" d="M105.236 6.435a5.257 5.257 0 0 1 7.434 7.434l-12.516 12.515c-3.593-4.815-3.203-11.664 1.171-16.038l3.911-3.911Z" fill="#4F9E91"/><path fill-rule="evenodd" clip-rule="evenodd" d="M123.127 34.672a5.254 5.254 0 0 1 0 7.434 5.255 5.255 0 0 1-7.433 0L103.179 29.59c4.815-3.593 11.664-3.203 16.038 1.171l3.91 3.91Z" fill="#EBE1C5"/><path fill-rule="evenodd" clip-rule="evenodd" d="M94.89 52.565a5.256 5.256 0 1 1-7.433-7.434l12.515-12.516c3.593 4.816 3.203 11.665-1.17 16.039l-3.911 3.91Z" fill="#EBCC6E"/><path fill-rule="evenodd" clip-rule="evenodd" d="M76.999 24.327a5.257 5.257 0 1 1 7.434-7.434l12.515 12.515c-4.816 3.593-11.665 3.203-16.039-1.17L77 24.326ZM102.439 51.032a16.53 16.53 0 0 0 4.22-11.912l6.011 6.01.045.045v4.291a5.256 5.256 0 0 1-10.276 1.566Z" fill="#ED834E"/><path fill-rule="evenodd" clip-rule="evenodd" d="M78.531 31.875a16.53 16.53 0 0 0 11.912 4.22l-6.01 6.011-.045.045h-4.291a5.256 5.256 0 0 1-1.566-10.276Z" fill="#4F9E91"/><path fill-rule="evenodd" clip-rule="evenodd" d="M121.595 27.125a16.532 16.532 0 0 0-11.912-4.22l6.011-6.011.045-.045h4.291a5.257 5.257 0 0 1 1.565 10.276Z" fill="#EBCC6E"/><path fill-rule="evenodd" clip-rule="evenodd" d="M97.688 7.968a16.532 16.532 0 0 0-4.22 11.912l-6.011-6.01-.045-.046v-4.29a5.257 5.257 0 0 1 10.276-1.566Z" fill="#EBE1C5"/><path fill-rule="evenodd" clip-rule="evenodd" d="M92.668 0a9.533 9.533 0 0 0-9.533 9.533v1.855a9.533 9.533 0 0 0-9.16 15.964l1.31 1.31a9.533 9.533 0 0 0 4.811 17.765h1.855a9.533 9.533 0 0 0 15.964 9.16l3.91-3.909a16.533 16.533 0 0 0 4.834-12.558l6.011 6.01a9.533 9.533 0 0 0 13.482 0 9.532 9.532 0 0 0 0-13.482l-1.31-1.31a9.53 9.53 0 0 0 4.721-8.233c0-5.265-4.269-9.533-9.533-9.533h-1.854a9.533 9.533 0 0 0-15.964-9.16l-3.91 3.91a16.532 16.532 0 0 0-4.834 12.558l-6.011-6.01-.045-.045V9.533a5.257 5.257 0 0 1 10.276-1.565c.197-.22.402-.435.613-.646l2.6-2.6A9.53 9.53 0 0 0 92.668 0Zm23.071 16.849-.045.044-6.011 6.011a16.53 16.53 0 0 1 11.912 4.22 5.256 5.256 0 0 0-1.565-10.276h-4.291ZM84.388 42.15l.045-.045 6.01-6.01a16.532 16.532 0 0 1-11.912-4.22 5.257 5.257 0 0 0 1.565 10.276h4.292Zm-6.02-10.425a16.8 16.8 0 0 0 0 0ZM107.458 59a9.53 9.53 0 0 1-8.232-4.722l2.599-2.6c.212-.211.416-.427.614-.646a5.258 5.258 0 0 0 10.276-1.565v-4.292a9.486 9.486 0 0 0 4.277 2.437v1.855c0 5.265-4.269 9.533-9.534 9.533Zm5.212-52.565a5.257 5.257 0 0 0-7.434 0l-3.911 3.91c-4.374 4.375-4.764 11.224-1.171 16.04l12.516-12.516a5.256 5.256 0 0 0 0-7.434Zm10.457 35.671a5.255 5.255 0 0 0 0-7.434l-3.91-3.91c-4.374-4.374-11.223-4.765-16.039-1.171l12.516 12.515a5.256 5.256 0 0 0 7.433 0ZM94.891 52.564a5.257 5.257 0 0 1-7.434-7.434l12.515-12.515c3.594 4.816 3.203 11.665-1.17 16.039l-3.911 3.91Zm-17.892-35.67a5.257 5.257 0 0 0 0 7.434l3.91 3.91c4.374 4.374 11.223 4.764 16.04 1.171L84.432 16.894a5.257 5.257 0 0 0-7.434 0Z" fill="#3D3A2C"/><path d="M0 19.278h4.675v14.528h8.03v3.935H0V19.278ZM21.194 38.138c-1.567 0-2.941-.282-4.12-.846-1.18-.58-2.096-1.373-2.748-2.377-.634-1.021-.95-2.192-.95-3.513 0-1.32.316-2.483.95-3.486.652-1.022 1.567-1.814 2.747-2.378 1.18-.581 2.553-.872 4.12-.872 1.568 0 2.941.291 4.121.872 1.18.564 2.087 1.356 2.72 2.378.652 1.003.978 2.165.978 3.486 0 1.32-.326 2.492-.977 3.513-.634 1.004-1.54 1.796-2.72 2.377-1.18.564-2.554.846-4.121.846Zm0-3.62c.933 0 1.673-.272 2.218-.818.564-.564.846-1.33.846-2.298 0-.969-.282-1.726-.846-2.271-.545-.564-1.285-.846-2.218-.846-.934 0-1.682.282-2.245.846-.546.545-.82 1.302-.82 2.271 0 .969.274 1.734.82 2.298.563.546 1.311.819 2.245.819ZM37.744 43.817c-.845 0-1.7-.08-2.562-.238-.845-.159-1.576-.37-2.192-.634v-3.223c1.39.599 2.976.898 4.754.898 1.286 0 2.21-.264 2.774-.792.58-.528.871-1.303.871-2.324v-.766c-.51.44-1.144.783-1.902 1.03-.74.246-1.532.37-2.377.37-1.338 0-2.518-.282-3.54-.846a6.12 6.12 0 0 1-2.403-2.377c-.563-1.021-.845-2.192-.845-3.513 0-1.338.282-2.518.845-3.54a5.769 5.769 0 0 1 2.377-2.35c1.022-.564 2.193-.846 3.514-.846 1.813 0 3.31.555 4.49 1.665v-1.268h4.49V36.87c0 2.2-.678 3.909-2.034 5.124-1.338 1.215-3.425 1.823-6.26 1.823Zm.529-9.272c.721 0 1.364-.185 1.928-.554.563-.37.96-.863 1.188-1.48v-2.218a2.975 2.975 0 0 0-1.215-1.453 3.392 3.392 0 0 0-1.901-.555c-.951 0-1.717.282-2.299.846-.58.545-.871 1.294-.871 2.245 0 .968.29 1.743.871 2.324.582.563 1.348.845 2.299.845ZM55.036 38.138c-1.567 0-2.94-.282-4.12-.846-1.18-.58-2.096-1.373-2.747-2.377-.634-1.021-.951-2.192-.951-3.513 0-1.32.317-2.483.95-3.486.652-1.022 1.568-1.814 2.748-2.378 1.18-.581 2.553-.872 4.12-.872 1.567 0 2.94.291 4.12.872 1.18.564 2.087 1.356 2.721 2.378.652 1.003.978 2.165.978 3.486 0 1.32-.326 2.492-.978 3.513-.634 1.004-1.54 1.796-2.72 2.377-1.18.564-2.554.846-4.12.846Zm0-3.62c.933 0 1.673-.272 2.219-.818.563-.564.845-1.33.845-2.298 0-.969-.282-1.726-.845-2.271-.546-.564-1.286-.846-2.219-.846-.933 0-1.682.282-2.245.846-.546.545-.819 1.302-.819 2.271 0 .969.273 1.734.819 2.298.563.546 1.312.819 2.245.819ZM137.418 19.278h4.676v18.463h-4.676V19.278ZM144.461 25.063h4.491v1.268c1.179-1.11 2.675-1.665 4.489-1.665 1.321 0 2.492.282 3.513.846a5.762 5.762 0 0 1 2.377 2.35c.564 1.004.846 2.175.846 3.514 0 1.32-.282 2.5-.846 3.54a5.933 5.933 0 0 1-2.377 2.376c-1.003.564-2.174.846-3.513.846a7.468 7.468 0 0 1-2.429-.397c-.757-.246-1.392-.59-1.902-1.03v6.815h-4.649V25.063Zm7.766 9.456c.951 0 1.717-.282 2.297-.845.581-.564.873-1.33.873-2.298 0-.969-.292-1.726-.873-2.272-.58-.563-1.346-.845-2.297-.845-.705 0-1.339.185-1.903.555a2.979 2.979 0 0 0-1.214 1.452v2.245c.247.617.651 1.11 1.214 1.48a3.518 3.518 0 0 0 1.903.528ZM167.107 38.138c-1.02 0-2.085-.106-3.195-.317-1.109-.194-1.991-.476-2.642-.846v-3.407c.722.423 1.585.775 2.589 1.057 1.021.264 1.954.396 2.8.396.615 0 1.065-.044 1.346-.132.283-.088.423-.264.423-.529a.567.567 0 0 0-.29-.502c-.176-.14-.511-.281-1.004-.422a34.719 34.719 0 0 0-1.664-.502c-1.074-.317-1.919-.643-2.536-.977-.616-.335-1.073-.758-1.374-1.268-.299-.51-.448-1.154-.448-1.928 0-1.374.537-2.395 1.611-3.064 1.092-.687 2.58-1.03 4.464-1.03a15.2 15.2 0 0 1 2.879.29c1.022.194 1.787.45 2.298.766v3.355c-.528-.352-1.233-.643-2.113-.872-.863-.229-1.673-.343-2.431-.343-.597 0-1.065.061-1.399.184-.334.106-.501.3-.501.582 0 .264.167.466.501.607.334.14.933.317 1.796.528.563.141.801.203.713.185 1.127.3 1.998.634 2.615 1.004.617.37 1.047.81 1.294 1.32.265.494.397 1.128.397 1.902 0 1.216-.528 2.184-1.585 2.906-1.039.704-2.554 1.057-4.544 1.057ZM180.176 38.138c-1.742 0-3.054-.484-3.934-1.453-.863-.968-1.295-2.245-1.295-3.83v-7.792h4.649v7.264c0 1.461.66 2.192 1.981 2.192.599 0 1.145-.14 1.638-.423.492-.281.897-.695 1.214-1.24v-7.793h4.649v12.679h-4.489v-1.374a5.3 5.3 0 0 1-1.982 1.32c-.774.3-1.585.45-2.431.45ZM191.458 25.063h4.306v1.373a5.48 5.48 0 0 1 1.823-1.294 5.164 5.164 0 0 1 2.192-.476c.951 0 1.708.141 2.272.423a3.346 3.346 0 0 1 1.399 1.268 5.597 5.597 0 0 1 1.929-1.241 6.21 6.21 0 0 1 2.298-.45c1.673 0 2.862.432 3.566 1.295.704.845 1.056 2.069 1.056 3.671v8.11h-4.438v-7.45c0-.704-.131-1.214-.396-1.531-.263-.317-.704-.476-1.319-.476-.793 0-1.437.282-1.929.846.017.299.026.757.026 1.373v7.237h-4.437v-7.633c0-.652-.114-1.119-.344-1.4-.229-.282-.634-.423-1.214-.423-.899 0-1.673.502-2.325 1.506v7.95h-4.465V25.063Z" fill="#fff"/></svg>
